X:137
T:Libby Prison Q.S.
S:American Veteran Fifer #137
C:By Theo. B. Jobe learned from a comrade while in Libby Prison in 1865
M:6/8
L:1/8
Q:280
K:D 
%%MIDI program 72
%%MIDI transpose 8
%%MIDI ratio 3 1
d | fze dcB | AzF F3 | AGF EFG | BAG FAd |
fze dcB | AzF d3 | ecA ABc | d3- d2 :|
|: f | gze fzd | ced cBA | gze fzd | cec A2f |
gze fzd | cde fga |[1 efe dcB | A3- A2 :|[2 ced cBc | d3- d2 z  |


